X: 2368
T: Baitheadh Bhrioclais
R: jig
M: 6/8
K: Gmajor
|:fed efg|ded BAG|ABA A2G|ABA A2g|
fed efg|ded BAG|ABc B2A|1 G2G Geg:|2 G2G GAB||
|:cBc edc|BAB dcB|ABA A2G|ABA A2B|
cBc edc|BAB dcB|ABc B2A|1 G2G GAB:|2 G2G Geg||

